X:1
T:Title
%%score ( 1 2 3 ) { 4 | 5 }
L:1/8
Q:1/4=110
M:4/4
K:A
V:1 treble nm="Grand Piano, Staff"
V:2 treble 
V:3 treble 
V:4 bass nm="Choir Pad, Daily, Daily"
V:5 bass 
V:1
 [CA]2 [CE]2 [DF]2 [CE]2 | [Dc]3 [DB] [CA]2 [CE]2 | z4 d4 | [EB]3 [Ec] [EB]4 | %4
w: By~Henry~Frederick~Hemy,~1865 * * *||||
 [CA]2 [CE]2 [DF]2 [CE]2 | [Dc]3 [DB] [CA]2 [CE]2 | [DF]2 [FB]2 [EA]2 [CE]2 | z2 .F2 z4 | %8
w: ||||
 [DE]3 [DE] [DB]2 [DE]2 | [CE]3 [CE] [Cc]2 [CA]2 | F2 G2 A2 B2 | c3 =c ^c4 | %12
w: ||||
 [Ec]3 [Fd] [DB]2 [DB]2 | B4 z4 | [DF]2 [FB]2 E2 [CA]2 | .c2 .A2 z4 | z8 |] %17
w: |||||
V:2
 x8 | x8 | [DF]2 [DF]2 F2 z c | x8 | x8 | x8 | x8 | [B,E]2 D-[DG] [CA]4 | x8 | x8 | x8 | x8 | x8 | %13
 D2 z c [CA]2 [CA]2 | x8 | D-[DB]E-[EG] [CA]4- | [CA]4 z4 |] %17
V:3
 x8 | x8 | z4 z2 B,2 | x8 | x8 | x8 | x8 | x8 | x8 | x8 | x8 | x8 | x8 | z2 C2 z4 | x8 | x8 | x8 |] %17
V:4
 A,2 A,2 A,2 A,2 | G,3 G, A,2 A,2 | A,2 A,2 B,3 A, | G,3 A, G,4 | A,2 A,2 A,2 A,2 | %5
 G,3 G, A,2 A,2 | A,2 D2 C2 A,2 | G,2 A,B, A,4 | G,3 G, G,2 G,2 | A,3 A, A,2 A,2 | %10
 F,2 G,2 A,2 B,2 | C3 =C ^C4 | A,3 A,[K:bass] A,2 G,2 | G,3 G, F,2 F,2 | A,2 D2 C2 A,2 | %15
 G,2 B,2 A,4- | A,4 z4 |] %17
V:5
 A,,2 A,,2 D,2 A,,2 | E,3 E, A,,2 A,,2 | D,2 D,2 B,,C,D,^D, | E,3 E, E,4 | A,,2 A,,2 D,2 A,,2 | %5
 E,3 E, A,,2 A,,2 | D,2 B,,2 E,2 E,2 | E,2 E,2 A,,4 | E,3 E, E,2 E,2 | A,,3 A,, A,,2 A,,2 | z8 | %11
 z8 | z4 E,2 E,2 | ^E,3 E, z4 | D,2 B,,2 E,2 E,2 | E,2 E,2 A,,4- | A,,4 z4 |] %17

